!!!COM: Honegger, Arthur
!!!OTL: Symphony No. 1
!!!OMV: I: Allegro marcato
!!!example: 603
!!!work: Hon-24
**kern	**kern	**kern	**kern	**kern	**kern	**kern	**kern	**kern	**kern	**kern
*part13	*part12	*part11	*part10	*part9	*part7	*part6	*part4	*part3	*part2	*part1
*staff13	*staff12	*staff11	*staff10	*staff9	*staff7	*staff6	*staff4	*staff3	*staff2	*staff1
*I"Contrabass	*I"Violoncello	*I"Viola	*I"Violin II	*I"Violin I	*I"Trombone	*I"Trumpet in Bb	*I"Horn in F	*I"Horn in F	*I"Bassoon	*I"Bass Clarinet in Bb
*I'Cb.	*I'Vc.	*I'Vla.	*I'Vln. II	*I'Vln. I	*I'Tbn.	*I'Tpt.	*I'Hn.	*I'Hn.	*I'Bsn.	*I'B. Cl.
*clefF4	*clefF4	*clefC3	*clefG2	*clefG2	*clefF4	*clefG2	*clefG2	*clefG2	*clefF4	*clefF4
*k[]	*k[]	*k[]	*k[]	*k[]	*k[]	*k[]	*k[]	*k[]	*k[]	*k[]
*	*	*	*	*	*	*	*	*	*	*
*M4/4	*M4/4	*M4/4	*M4/4	*M4/4	*M4/4	*M4/4	*M4/4	*M4/4	*M4/4	*M4/4
*MM121	*MM121	*MM121	*MM121	*MM121	*MM121	*MM121	*MM121	*MM121	*MM121	*MM121
=14	=14	=14	=14	=14	=14	=14	=14	=14	=14	=14
!LO:TX:t=pizz.	!	!	!	!	!	!	!	!	!	!
4CC	4CC	4E-X	4Gn	4c	4AA-X 4C	4B-X	1r	4r	4CC	4r
4BBn	4r	4r	4r	4r	4r	4r	.	4F#X^	4BBn	4d#X
4DD-X	4r	4r	4r	4r	2r	2r	.	4G	4DD-X	4r
*	*clefC4	*	*	*	*	*	*	*	*	*
4C	4c	(4cc	(4cc	(4cc	.	.	.	4A-X	4C	4e#X
=15	=15	=15	=15	=15	=15	=15	=15	=15	=15	=15
4CC	4.b-X	4.een)	4.aa-X)	4.ddd-X)	1r	1r	4F#X^	2r	4CC	4r
4BBn	.	.	.	.	.	.	4G	.	4BBn	4d#X
.	[8g#X	[8dd	[8ff#X	[8ddd-	.	.	.	.	.	.
4DD-X	4..g#]	4..dd]	4..ff#]	4..ddd-]	.	.	4A-X	4r	4DD-X	4r
4C	.	.	.	.	.	.	4r	4F#X^	4C	4e#X
.	[16an	[16ee-X	[16gg	[16ddd-	.	.	.	.	.	.
=16	=16	=16	=16	=16	=16	=16	=16	=16	=16	=16
4CC	2an]	2ee-]	2gg]	2ddd-]	1r	1r	2r	4G	4CC	4r
4BBn	.	.	.	.	.	.	.	4A-X	4BB	4C#X
4DD-X	(6b-X	(6een	(6ccc	(6ccc	.	.	4F#X^	2r	4DD-X	4r
.	6bn)	6dd)	6bb-X)	6bb-X)	.	.	.	.	.	.
4C	.	.	.	.	.	.	4G	.	4C	4D
.	(6c	(6cc	(6cc	(6cc	.	.	.	.	.	.
=17	=17	=17	=17	=17	=17	=17	=17	=17	=17	=17
4CC	4.a-X)	4.dd)	4.gg)	4.ccc)	1r	1r	4A-X	4r	4CC	4r
4BBn	.	.	.	.	.	.	4r	4F#X^	4BB	4C#X
.	[8an	[8dd-X	[8gg-X	[8ccc	.	.	.	.	.	.
4DD-X	4a]	4dd-]	4gg-]	4ccc]	.	.	2r	4G	4DD-X	4r
4C	[4b-X	[4een	[4ff	[4ccc	.	.	.	4A-X	4C	4D
=18	=18	=18	=18	=18	=18	=18	=18	=18	=18	=18
4CC	4.b-]	4.een]	4.ff]	4.ccc]	1r	1r	4F#X^	2r	4CC	4r
4BBn	.	.	.	.	.	.	4G	.	4BB	4C#X
.	([8bn	([8ddn	([8ggn	([8bb-X	.	.	.	.	.	.
4DD-X	8bL]	8ddL]	8ggL]	8bb-L]	.	.	4A-X	4r	4DD-X	4r
.	8ccJ)	8ee-XJ)	8ffJ)	8aa-XJ)	.	.	.	.	.	.
4C	(4c	(4cc	(4cc	(4cc	.	.	4r	4F#X^	4C	4D
=19	=19	=19	=19	=19	=19	=19	=19	=19	=19	=19
4CC	2.g-X)	2.cc) 2.een	2.een) 2.ggn	2.bb-X)	1r	1r	2r	4G	4CC	4r
4BBn	.	.	.	.	.	.	.	4A-X	4BB	4C#X
4DD-X	.	.	.	.	.	.	4F#X^	2r	4DD-X	4r
4C	[4a-X	[4bn	[4dd [4ff#X	[4bb-	.	.	4G	.	4C	4D
=20	=20	=20	=20	=20	=20	=20	=20	=20	=20	=20
4CC	4a-]	4b]	4dd] 4ff#]	4bb-]	1r	1r	4A-X	4r	4CC	4r
4BBn	2an	2cc	2ee-X 2gg-X	2cc 2aa-X	.	.	4r	4F#X^	4BB	4C#X
4DD-X	.	.	.	.	.	.	2r	4G	4DD-X	4r
4C	[4b-X	[4bn	[4dd-X [4ffn	4dd-X 4gg	.	.	.	4A-X	4C	4D
=	=	=	=	=	=	=	=	=	=	=
*-	*-	*-	*-	*-	*-	*-	*-	*-	*-	*-
!!!system-decoration: [(s1,s2)][(s3,s4,s5,s6,s7,s8)][(s9,s10,s11,s12,s13)]
!!!CDT: 1892/03/10-1955/11/27
!!!CBL: Le Havre, France
!!!CDL: Paris, France
!!!CNT: Swiss, French
!!!AGN: Orchestral; Symphonic
!!!MCN: Koussevitzky, Serge
!!!MDT: 1931/02/13
!!!MGN: Boston Symphony Orchestra
!!!MLC: Boston, Massachusetts, United States of America
!!!MPD: 1931
!!!MPN:
!!!ODT: 1930
!!!PDT: 1930
!!!excerpt-start-measure: 14
!!!excerpt-end-measure: 20
!!!excerpt-start-time: 0:18
!!!excerpt-end-time: 0:28
!!!EEV: 2020/01/22
!!!ONB: Converted from MusicXML on 2020/01/22
